X:1
T:Title
%%score { 1 | 2 }
L:1/8
M:4/4
K:F
V:1 treble nm="Grand Piano"
V:2 bass 
V:1
 z4 z2[Q:1/4=106] F2 | A2 A2 A2 B2 | c2 c2 c2 [GB][FA] | [EG]2 [EG]2 [DF]2 [EG]2 | A6 F2 | %5
 A2 A2 A2 B2 | c2 c2 [CFc]2 [DFB]2 | [CFA]2 [CFc][DFB] [CFA]2 [B,EG]2 |[M:3/4] F6 |[M:1/4] F>G | %10
[M:4/4] A4 F2 A>[GB] | [Ac]4 A2 A>A | [EG]2 [FA]2 [GB]2 [EG]2 | A2 d2 c2 A>[GB] | [Ac]4 A2 cf | %15
 f4 d2 e>d | c2 dc [FA]2 [EG]2 |[M:3/4] F6 |] %18
V:2
 z4 z2 [F,A,C]2 | [F,CF]2 [F,CF]2 [F,CF]2 [F,CG]2 | [F,A,F]2 [F,A,F]2 [F,A,F]2 [F,C][F,C] | %3
 [C,C]2 [C,B,]2 [D,A,]2 [C,C]2 | [F,CF]6 [F,A,C]2 | [F,CF]2 [F,CF]2 [F,CF]2 [F,CG]2 | %6
 [F,A,F]2 [F,A,F]2 A,,2 B,,2 | C,2 A,,B,, C,2 C,2 |[M:3/4] [F,A,]6 |[M:1/4] [F,A,C]>[F,B,F] | %10
[M:4/4] [F,CF]4 [F,A,C]2 [F,CF]>[F,C] | [F,F]4 [F,CF]2 [F,CF]>[F,CF] | %12
 [C,C]2 [C,C]2 [C,C]2 [C,C]2 | [F,CF]2 [F,B,F]2 [F,A,F]2 [F,CF]>[F,C] | %14
 [F,F]4 [F,CF]2 [A,CF][A,CF] | [B,DF]4 [B,F]2 [B,F]>[B,F] | %16
 [A,CF]2[K:bass] [F,B,F][F,A,F] [C,C]2 [C,B,]2 |[M:3/4] [F,A,]6 |] %18

